tools/download-figma-icons/icons/solid/eye.svg

<svg width="24" height="24" viewBox="0 0 24 24" fill="none" xmlns="http://www.w3.org/2000/svg">
<path fill-rule="evenodd" clip-rule="evenodd" d="M11.9981 15.855C9.92812 15.855 8.24812 14.175 8.24812 12.105C8.24812 10.035 9.92812 8.355 11.9981 8.355C14.0681 8.355 15.7481 10.035 15.7481 12.105C15.7481 14.175 14.0681 15.855 11.9981 15.855ZM22.3556 11.67C22.1681 11.4075 17.7056 5.25 11.9981 5.25C6.29813 5.25 1.82812 11.4075 1.64062 11.67C1.45312 11.9325 1.45312 12.2775 1.64062 12.54C1.82812 12.8025 6.29813 18.96 11.9981 18.96C17.7056 18.96 22.1681 12.8025 22.3556 12.54C22.5431 12.2775 22.5431 11.9325 22.3556 11.67Z" fill="black"/>
</svg>

<svg xmlns="http://www.w3.org/2000/svg" width="24" height="24" fill="none" viewBox="0 0 24 24"><path fill="currentColor" fill-rule="evenodd" d="M11.998 15.855c-2.07 0-3.75-1.68-3.75-3.75s1.68-3.75 3.75-3.75 3.75 1.68 3.75 3.75-1.68 3.75-3.75 3.75m10.358-4.185c-.188-.262-4.65-6.42-10.358-6.42-5.7 0-10.17 6.158-10.357 6.42a.74.74 0 0 0 0 .87c.187.263 4.657 6.42 10.357 6.42 5.708 0 10.17-6.158 10.358-6.42a.74.74 0 0 0 0-.87" clip-rule="evenodd"/></svg>
